public/logo-icon.svg

<?xml version="1.0" encoding="UTF-8" standalone="no"?>
<svg
   width="71.980003"
   height="55.833298"
   viewBox="0 0 71.980003 55.833298"
   fill="none"
   version="1.1"
   id="svg10"
   sodipodi:docname="logo-icon.svg"
   inkscape:version="1.1.2 (0a00cf5339, 2022-02-04)"
   xmlns:inkscape="http://www.inkscape.org/namespaces/inkscape"
   xmlns:sodipodi="http://sodipodi.sourceforge.net/DTD/sodipodi-0.dtd"
   xmlns="http://www.w3.org/2000/svg"
   xmlns:svg="http://www.w3.org/2000/svg">
  <defs
     id="defs14" />
  <sodipodi:namedview
     id="namedview12"
     pagecolor="#ffffff"
     bordercolor="#666666"
     borderopacity="1.0"
     inkscape:pageshadow="2"
     inkscape:pageopacity="0.0"
     inkscape:pagecheckerboard="0"
     showgrid="false"
     fit-margin-top="0"
     fit-margin-left="0"
     fit-margin-right="0"
     fit-margin-bottom="0"
     inkscape:zoom="10"
     inkscape:cx="35.35"
     inkscape:cy="27.95"
     inkscape:window-width="1440"
     inkscape:window-height="836"
     inkscape:window-x="0"
     inkscape:window-y="0"
     inkscape:window-maximized="1"
     inkscape:current-layer="svg10" />
  <path
     fill-rule="evenodd"
     clip-rule="evenodd"
     d="m 67.4385,43.494799 c 0.021,0.0094 0.0421,0.0187 0.0628,0.0299 l 0.0022,-0.0109 c -0.0198,-0.0066 -0.0392,-0.014 -0.0589,-0.0215 -0.0194,-0.0075 -0.039,-0.0151 -0.0591,-0.0222 0.0175,0.009 0.0352,0.0169 0.053,0.0247 z M 47.2746,10.163899 C 41.1605,6.9045491 33.781,6.0387891 26.6703,8.3498291 12.786,12.862399 5.1906597,27.774399 9.7021697,41.656499 c 0.9810303,3.019 2.4538303,5.7407 4.3008303,8.1052 -5.8242303,-3.1047 -10.5003703,-8.3816 -12.7018103,-15.155 -4.51151,-13.8811 3.08493,-28.7940999 16.9682103,-33.3056099 10.864,-3.53038 22.3579,0.3542 29.0052,8.8628099 z"
     fill="#e78200"
     id="path2"
     style="fill:#2563eb;fill-opacity:1" />
  <path
     fill-rule="evenodd"
     clip-rule="evenodd"
     d="m 71.9296,50.883299 c 0.0164,0.0074 0.033,0.0149 0.0493,0.0236 l 0.0011,-0.0087 c -0.0156,-0.005 -0.031,-0.0112 -0.0467,-0.0175 -0.0149,-0.006 -0.0302,-0.0121 -0.0462,-0.0175 0.0138,0.0072 0.0281,0.0136 0.0425,0.0201 z M 55.992,24.533999 c -4.8315,-2.5747 -10.663,-3.2586 -16.2823,-1.434 -10.9754,3.5637 -16.9791,15.3503 -13.4154,26.3235 0.7756,2.3876 1.9402,4.54 3.4009,6.4098 -4.605,-2.4543 -8.3018,-6.6264 -10.0408,-11.9817 -3.5648,-10.9721 2.44,-22.7597 13.4143,-26.3235 8.5869,-2.7884 17.6704,0.2819 22.9233,7.0059 z"
     fill="#e78200"
     id="path4"
     style="fill:#2563eb;fill-opacity:1" />
  <path
     fill-rule="evenodd"
     clip-rule="evenodd"
     d="m 67.8456,50.946199 c 0.0101,0.0044 0.0204,0.0088 0.0307,0.0143 v -0.0055 l -0.0547,-0.0197 c 0.0078,0.0039 0.0159,0.0074 0.024,0.0109 z m -9.6006,-15.8694 c -2.9114,-1.5517 -6.4253,-1.9638 -9.8108,-0.8637 -6.6104,2.1481 -10.2266,9.2494 -8.0785,15.8587 0.4671,1.4373 1.1683,2.733 2.0476,3.8587 -2.7728,-1.478 -4.9991,-3.9902 -6.0475,-7.2148 -2.1481,-6.6093 1.4681,-13.7105 8.0785,-15.8586 5.1729,-1.6809 10.6457,0.1686 13.8107,4.2197 z"
     fill="#e78200"
     id="path6"
     style="fill:#2563eb;fill-opacity:1" />
  <path
     d="m 54.776,51.932799 c 2.1627,0 3.916,-1.7532 3.916,-3.916 0,-2.1627 -1.7533,-3.916 -3.916,-3.916 -2.1628,0 -3.916,1.7533 -3.916,3.916 0,2.1628 1.7532,3.916 3.916,3.916 z"
     fill="#e78200"
     id="path8"
     style="fill:#2563eb;fill-opacity:1" />
</svg>

<svg width="72" height="56" viewBox="0 0 72 56" fill="none" xmlns="http://www.w3.org/2000/svg">
<path fill-rule="evenodd" clip-rule="evenodd" d="M67.4385 43.4948C67.4595 43.5042 67.4806 43.5135 67.5013 43.5247L67.5035 43.5138C67.4837 43.5072 67.4643 43.4998 67.4446 43.4923C67.4252 43.4848 67.4056 43.4772 67.3855 43.4701C67.403 43.4791 67.4207 43.487 67.4385 43.4948ZM47.2746 10.1639C41.1605 6.90455 33.781 6.03879 26.6703 8.34983C12.786 12.8624 5.19066 27.7744 9.70217 41.6565C10.6832 44.6755 12.156 47.3972 14.003 49.7617C8.17877 46.657 3.50263 41.3801 1.30119 34.6067C-3.21032 20.7256 4.38612 5.8126 18.2694 1.30109C29.1334 -2.22929 40.6273 1.65529 47.2746 10.1639Z" fill="#E78200"/>
<path fill-rule="evenodd" clip-rule="evenodd" d="M71.9296 50.8833C71.946 50.8907 71.9626 50.8982 71.9789 50.9069L71.98 50.8982C71.9644 50.8932 71.949 50.887 71.9333 50.8807C71.9184 50.8747 71.9031 50.8686 71.8871 50.8632C71.9009 50.8704 71.9152 50.8768 71.9296 50.8833ZM55.992 24.534C51.1605 21.9593 45.329 21.2754 39.7097 23.1C28.7343 26.6637 22.7306 38.4503 26.2943 49.4235C27.0699 51.8111 28.2345 53.9635 29.6952 55.8333C25.0902 53.379 21.3934 49.2069 19.6544 43.8516C16.0896 32.8795 22.0944 21.0919 33.0687 17.5281C41.6556 14.7397 50.7391 17.81 55.992 24.534Z" fill="#E78200"/>
<path fill-rule="evenodd" clip-rule="evenodd" d="M67.8456 50.9462C67.8557 50.9506 67.866 50.955 67.8763 50.9605V50.955L67.8216 50.9353C67.8294 50.9392 67.8375 50.9427 67.8456 50.9462ZM58.245 35.0768C55.3336 33.5251 51.8197 33.113 48.4342 34.2131C41.8238 36.3612 38.2076 43.4625 40.3557 50.0718C40.8228 51.5091 41.524 52.8048 42.4033 53.9305C39.6305 52.4525 37.4042 49.9403 36.3558 46.7157C34.2077 40.1064 37.8239 33.0052 44.4343 30.8571C49.6072 29.1762 55.08 31.0257 58.245 35.0768Z" fill="#E78200"/>
<path d="M54.776 51.9328C56.9387 51.9328 58.692 50.1796 58.692 48.0168C58.692 45.8541 56.9387 44.1008 54.776 44.1008C52.6132 44.1008 50.86 45.8541 50.86 48.0168C50.86 50.1796 52.6132 51.9328 54.776 51.9328Z" fill="#E78200"/>
</svg>
